X: 38
T: Road to the Isles
C: R-17
M: C
Z: Transcribed to abc by Mary Lou Knack
R: strathspey
K: G
D>G| "G"B4 "G7"d>BA>B| "C"G>AG>F E2G>F| E>CE>F "A7"G>AB<d| "D"A6 "D7"D>G|
     "G"B4 "G7"d>BA>B| "C"G>AG>F E2c2| B<d"G"B>G "D"D>F A<F| "G"G6|]
\
B>c| "G"d>D (3DDD "G7"B>D (3DDD| "C"G>AG>F E2G>F| E>CE>F "A7"G>AB<d| "D"A6 "D7"B>c|
     "G"d>D (3DDD "G7"B>D (3DDD| "C"G>AG>F E2c2| B<d"G"B>G "D"D>FA<F| "G"G6 |]
%%text 9/1/98.  Strathspey.
% ---------- page 20 ----------
